X:1
L:1/8
M:2/2
K:D
|: D2 [FA]D EDCE | DDFA{de} d2 cd | edBc dBAG | FAFD EDCE | D2 [FA]D EDCE | DDFA{de} d2 cd | 
 edBc dBAG | FDEC D2 :: d2 dc{Bc} B2 A2 | ceed cBAF | D2 EF GBAG | FAFD EDCE | D2 [FA]D EDCE | 
 DDFA{de} d2 cd | edBc dBAG | FDEC D2 ::""^variations"" D2 FD E3 G | FDFA{de} d2 cd | edBc dBAG | 
 FAFD EDCE | [FA]4 [EA]3 G | FDFA{de} d2 cd | edBc dBAG | FDEC D2 :: (3ABc | d2 dc{Bc} B2 A2 | 
 ceed cBAF | D2 EF GBAG | FAFD EDCE | D2 [FA]D EDCE | DDFA{de} d2 cd | edBc dBAG | 
 (3FGF (3EFE D2 :|
